packages/core/assets/Icons/drag_handle.svg

<svg viewBox="0 0 20 20" fill="none" xmlns="http://www.w3.org/2000/svg">
<path d="M4.16665 12.5C3.93054 12.5 3.73262 12.4201 3.5729 12.2604C3.41317 12.1007 3.33331 11.9028 3.33331 11.6667C3.33331 11.4306 3.41317 11.2326 3.5729 11.0729C3.73262 10.9132 3.93054 10.8333 4.16665 10.8333H15.8333C16.0694 10.8333 16.2673 10.9132 16.4271 11.0729C16.5868 11.2326 16.6666 11.4306 16.6666 11.6667C16.6666 11.9028 16.5868 12.1007 16.4271 12.2604C16.2673 12.4201 16.0694 12.5 15.8333 12.5H4.16665ZM4.16665 9.16667C3.93054 9.16667 3.73262 9.08681 3.5729 8.92708C3.41317 8.76736 3.33331 8.56944 3.33331 8.33333C3.33331 8.09722 3.41317 7.89931 3.5729 7.73958C3.73262 7.57986 3.93054 7.5 4.16665 7.5H15.8333C16.0694 7.5 16.2673 7.57986 16.4271 7.73958C16.5868 7.89931 16.6666 8.09722 16.6666 8.33333C16.6666 8.56944 16.5868 8.76736 16.4271 8.92708C16.2673 9.08681 16.0694 9.16667 15.8333 9.16667H4.16665Z" fill="currentColor"/>
</svg>

<svg xmlns="http://www.w3.org/2000/svg" width="20" height="20" fill="none" viewBox="0 0 20 20">
  <path fill="#201F1F" d="M4.167 12.5a.806.806 0 0 1-.594-.24.806.806 0 0 1-.24-.593c0-.236.08-.434.24-.594.16-.16.358-.24.594-.24h11.666c.236 0 .434.08.594.24.16.16.24.358.24.594s-.08.434-.24.593a.807.807 0 0 1-.594.24H4.167Zm0-3.333a.806.806 0 0 1-.594-.24.806.806 0 0 1-.24-.594c0-.236.08-.434.24-.593.16-.16.358-.24.594-.24h11.666c.236 0 .434.08.594.24.16.16.24.357.24.593s-.08.434-.24.594a.807.807 0 0 1-.594.24H4.167Z"/>
</svg>
